app/assets/images/payment_icons/busd.svg

<svg xmlns="http://www.w3.org/2000/svg" width="38" height="24" viewBox="0 0 38 24" fill="none" aria-labelledby="pi-busd" role="img"><title id="pi-busd">Binance USD</title><rect width="38" height="24" fill="white"/><path d="M19 20C23.4183 20 27 16.4183 27 12C27 7.58172 23.4183 4 19 4C14.5817 4 11 7.58172 11 12C11 16.4183 14.5817 20 19 20Z" fill="#F3BA2D"/><path fill-rule="evenodd" clip-rule="evenodd" d="M19.024 6.63989L15.63 10.0349L16.987 11.3919L20.382 7.99789L19.024 6.63989V6.63989ZM14.966 10.8589L13.608 12.2159L14.966 13.5739L16.323 12.2159L14.966 10.8589ZM15.732 14.2529L21.162 8.82289L22.52 10.1799L17.09 15.6099L15.732 14.2529V14.2529ZM23.402 10.7429L17.972 16.1729L19.329 17.5309L24.759 12.0999L23.402 10.7419V10.7429Z" fill="white"/></svg>

<svg xmlns="http://www.w3.org/2000/svg" width="38" height="24" fill="none" aria-labelledby="pi-busd" role="img" viewBox="0 0 38 24"><title id="pi-busd">Binance USD</title><path fill="#fff" d="M0 0h38v24H0z"/><path fill="#F3BA2D" d="M19 20a8 8 0 1 0 0-16 8 8 0 0 0 0 16"/><path fill="#fff" fill-rule="evenodd" d="m19.024 6.64-3.394 3.395 1.357 1.357 3.395-3.394zm-4.058 4.219-1.358 1.357 1.358 1.358 1.357-1.358zm.766 3.394 5.43-5.43 1.358 1.357-5.43 5.43zm7.67-3.51-5.43 5.43 1.357 1.358 5.43-5.431-1.357-1.358" clip-rule="evenodd"/></svg>
